X: 5
T: Andy De Jarlis'
R: jig
M: 6/8
L: 1/8
K: Emaj
F | "E"EGB EGB | "E"EGB "A"c2 B | "E"EGB EGB | "D"=DFA "Bm"B2 A |
"E"EGB EGB | "E"EGB "A"c2 a | "E"g2 f "B"Bcd | "E"e3 e2 :|
|: a | "E"gbg efg | "A"aba c2 e | "F#m"f2 g f2 e | "B"dcB "A"c2 B |
"E"gbg efg | "A"aba c2 a | "E"g2 f "B"Bcd | "E"e3 e2 :|


Tune 838	Setting 838

